icons/penis_fill.svg

<svg width="48" height="48" viewBox="0 0 48 48" fill="none" xmlns="http://www.w3.org/2000/svg">
<path fill-rule="evenodd" clip-rule="evenodd" d="M13.0868 6.8462C14.1871 6.17163 15.4411 6 16.5578 6H39.0001C40.6569 6 42.0001 7.34315 42.0001 9V25.9995C42.0001 30.7097 37.4603 33.9995 33.0001 33.9995C28.5399 33.9995 24.0001 30.7097 24.0001 25.9995V17.1392C23.4028 17.2975 22.7913 17.5849 22.2682 17.9737C21.4332 18.5944 21.0001 19.3314 21.0001 19.9995V28.9994C21.7557 29.3574 22.3131 29.8267 22.6413 30.5098C23.001 31.2583 23.0005 32.1368 23.0001 32.9188L23.0001 32.9995C23.0001 35.1884 22.1198 37.411 20.7173 39.0903C19.5212 40.5224 17.8841 41.6269 16 41.9217V16C16 13.7909 17.7909 12 20 12H35V10H20C16.6863 10 14 12.6863 14 16V41.9217C12.1159 41.6268 10.4789 40.5224 9.28279 39.0903C7.8803 37.411 7.00006 35.1884 7.00006 32.9995L7.00003 32.9188C6.9996 32.1367 6.99911 31.2583 7.35877 30.5098C7.68697 29.8267 8.24444 29.3574 9.00006 28.9994V13.9995C9.00006 10.815 10.6517 8.3392 13.0868 6.8462Z" fill="black"/>
</svg>

<svg
  xmlns="http://www.w3.org/2000/svg"
  width="24"
  height="24"
  viewBox="0 0 24 24"
  fill="none"
  stroke="currentColor"
  stroke-width="2"
  stroke-linecap="round"
  stroke-linejoin="round"
>
  <path
    fill-rule="evenodd"
    d="M13.087 6.846c1.1-.674 2.354-.846 3.47-.846H39a3 3 0 0 1 3 3v17c0 4.71-4.54 8-9 8s-9-3.29-9-8v-8.86a5.2 5.2 0 0 0-1.732.834C21.433 18.594 21 19.33 21 20v9c.756.357 1.313.827 1.641 1.51.36.748.36 1.627.36 2.409v.08c0 2.19-.881 4.412-2.284 6.091-1.196 1.432-2.833 2.537-4.717 2.832V16a4 4 0 0 1 4-4h15v-2H20a6 6 0 0 0-6 6v25.922c-1.884-.295-3.521-1.4-4.717-2.832C7.88 37.411 7 35.188 7 33v-.081c0-.782 0-1.66.359-2.41.328-.682.885-1.152 1.641-1.51V14c0-3.184 1.652-5.66 4.087-7.153"
    clip-rule="evenodd"
  />
</svg>
